src/stories/assets/github.svg

<svg width="32" height="32" viewBox="0 0 32 32" fill="none" xmlns="http://www.w3.org/2000/svg">
<path d="M16.0001 0C7.16466 0 0 7.17472 0 16.0256C0 23.1061 4.58452 29.1131 10.9419 31.2322C11.7415 31.3805 12.0351 30.8845 12.0351 30.4613C12.0351 30.0791 12.0202 28.8167 12.0133 27.4776C7.56209 28.447 6.62283 25.5868 6.62283 25.5868C5.89499 23.7345 4.8463 23.2419 4.8463 23.2419C3.39461 22.2473 4.95573 22.2678 4.95573 22.2678C6.56242 22.3808 7.40842 23.9192 7.40842 23.9192C8.83547 26.3691 11.1514 25.6609 12.0645 25.2514C12.2081 24.2156 12.6227 23.5087 13.0803 23.1085C9.52648 22.7032 5.7906 21.3291 5.7906 15.1886C5.7906 13.4389 6.41563 12.0094 7.43916 10.8871C7.27303 10.4834 6.72537 8.85349 7.59415 6.64609C7.59415 6.64609 8.93774 6.21539 11.9953 8.28877C13.2716 7.9337 14.6404 7.75563 16.0001 7.74953C17.3599 7.75563 18.7297 7.9337 20.0084 8.28877C23.0623 6.21539 24.404 6.64609 24.404 6.64609C25.2749 8.85349 24.727 10.4834 24.5608 10.8871C25.5868 12.0094 26.2075 13.4389 26.2075 15.1886C26.2075 21.3437 22.4645 22.699 18.9017 23.0957C19.4756 23.593 19.9869 24.5683 19.9869 26.0634C19.9869 28.2077 19.9684 29.9334 19.9684 30.4613C19.9684 30.8877 20.2564 31.3874 21.0674 31.2301C27.4213 29.1086 32 23.1037 32 16.0256C32 7.17472 24.8364 0 16.0001 0ZM5.99257 22.8288C5.95733 22.9084 5.83227 22.9322 5.71834 22.8776C5.60229 22.8253 5.53711 22.7168 5.57474 22.6369C5.60918 22.5549 5.7345 22.5321 5.85029 22.587C5.9666 22.6393 6.03284 22.7489 5.99257 22.8288ZM6.7796 23.5321C6.70329 23.603 6.55412 23.5701 6.45291 23.4581C6.34825 23.3464 6.32864 23.197 6.40601 23.125C6.4847 23.0542 6.62937 23.0874 6.73429 23.1991C6.83895 23.3121 6.85935 23.4605 6.7796 23.5321ZM7.31953 24.4321C7.2215 24.5003 7.0612 24.4363 6.96211 24.2938C6.86407 24.1513 6.86407 23.9804 6.96422 23.9119C7.06358 23.8435 7.2215 23.905 7.32191 24.0465C7.41968 24.1914 7.41968 24.3623 7.31953 24.4321ZM8.23267 25.4743C8.14497 25.5712 7.95818 25.5452 7.82146 25.413C7.68156 25.2838 7.64261 25.1004 7.73058 25.0035C7.81934 24.9064 8.00719 24.9337 8.14497 25.0648C8.28381 25.1938 8.3262 25.3785 8.23267 25.4743ZM9.41281 25.8262C9.37413 25.9517 9.19423 26.0088 9.013 25.9554C8.83203 25.9005 8.7136 25.7535 8.75016 25.6266C8.78778 25.5003 8.96848 25.4408 9.15104 25.4979C9.33174 25.5526 9.45044 25.6985 9.41281 25.8262ZM10.7559 25.9754C10.7604 26.1076 10.6067 26.2172 10.4165 26.2196C10.2252 26.2238 10.0704 26.1169 10.0683 25.9868C10.0683 25.8534 10.2185 25.7448 10.4098 25.7416C10.6001 25.7379 10.7559 25.8441 10.7559 25.9754ZM12.0753 25.9248C12.0981 26.0537 11.9658 26.1862 11.7769 26.2215C11.5912 26.2554 11.4192 26.1758 11.3957 26.0479C11.3726 25.9157 11.5072 25.7833 11.6927 25.7491C11.8819 25.7162 12.0512 25.7937 12.0753 25.9248Z" fill="#161614"/>
</svg>

<svg width="32" height="32" viewBox="0 0 32 32" fill="none" xmlns="http://www.w3.org/2000/svg">
  <path d="M16 0C7.165 0 0 7.175 0 16.026c0 7.08 4.585 13.087 10.942 15.206.8.149 1.093-.348 1.093-.77 0-.383-.015-1.645-.022-2.984-4.45.969-5.39-1.891-5.39-1.891-.728-1.852-1.777-2.345-1.777-2.345-1.451-.995.11-.974.11-.974 1.606.113 2.452 1.651 2.452 1.651 1.427 2.45 3.743 1.742 4.657 1.332.143-1.035.558-1.742 1.015-2.143-3.554-.405-7.29-1.779-7.29-7.92 0-1.75.626-3.179 1.65-4.3-.167-.405-.715-2.035.154-4.242 0 0 1.344-.43 4.401 1.643A15.3 15.3 0 0 1 16 7.749c1.36.007 2.73.185 4.008.54 3.054-2.074 4.396-1.643 4.396-1.643.87 2.207.323 3.837.157 4.241 1.026 1.122 1.646 2.552 1.646 4.302 0 6.155-3.742 7.51-7.305 7.907.574.497 1.085 1.472 1.085 2.967 0 2.145-.019 3.87-.019 4.398 0 .427.288.926 1.1.77C27.42 29.108 32 23.103 32 16.025 32 7.175 24.836 0 16 0M5.993 22.829c-.036.08-.16.103-.275.049s-.18-.161-.143-.241c.034-.082.16-.105.275-.05.117.052.183.162.143.242m.787.703c-.077.071-.226.038-.327-.074-.105-.112-.124-.261-.047-.333.079-.07.223-.038.328.074.105.113.125.261.046.333m.54.9c-.099.068-.259.004-.358-.138s-.098-.314.002-.382c.1-.069.257-.007.358.135.098.144.098.315-.002.385m.913 1.042c-.088.097-.275.071-.412-.061-.14-.13-.178-.313-.09-.41s.276-.07.414.062c.139.129.181.313.088.41m1.18.352c-.039.126-.219.183-.4.13-.181-.055-.3-.203-.263-.33.038-.126.218-.185.401-.128.18.055.3.2.262.328m1.343.15c.004.132-.15.241-.34.244s-.346-.103-.348-.233c0-.134.15-.242.342-.245.19-.004.346.102.346.233m1.32-.051c.022.129-.11.261-.3.296-.185.034-.357-.045-.38-.173-.023-.132.111-.265.297-.299.189-.033.358.045.382.176" fill="#161614"/>
</svg>
